src/assets/images/levinswap.svg

<svg width="101" height="21" viewBox="0 0 101 21" fill="none" xmlns="http://www.w3.org/2000/svg">
<g opacity="0.5">
<path d="M10.7573 21C16.6983 21 21.5145 16.299 21.5145 10.5C21.5145 4.70101 16.6983 0 10.7573 0C4.81619 0 0 4.70101 0 10.5C0 16.299 4.81619 21 10.7573 21Z" fill="url(#paint0_linear_348_182)"/>
<path d="M13.934 15.9781V8.89061H7.58048L13.934 15.9781Z" fill="#595959"/>
<path d="M7.58048 5.01952V12.0906H13.934L7.58048 5.01952Z" fill="#ACACAC"/>
<path d="M27.3171 14.4164H34.1771V12.9314H29.1151V4.96642H27.3171V14.4164Z" fill="white"/>
<path d="M42.3062 10.8524C42.3062 8.59792 40.7295 7.12642 38.5719 7.12642C36.3728 7.12642 34.7546 8.66542 34.7546 10.8119C34.7546 12.9584 36.3589 14.5109 38.8347 14.5109C40.1071 14.5109 41.1444 14.1059 41.8083 13.3364L40.8816 12.2969C40.356 12.8234 39.706 13.0799 38.8761 13.0799C37.5899 13.0799 36.6909 12.4049 36.4834 11.3519H42.2785C42.2923 11.1899 42.3062 10.9874 42.3062 10.8524ZM38.5719 8.47642C39.706 8.47642 40.522 9.19192 40.6603 10.2314H36.4696C36.6356 9.17842 37.4516 8.47642 38.5719 8.47642Z" fill="white"/>
<path d="M49.0875 7.20742L46.7224 12.5534L44.4265 7.20742H42.6285L45.7957 14.4164H47.5799L50.7472 7.20742H49.0875Z" fill="white"/>
<path d="M52.699 6.01942C53.3491 6.01942 53.8055 5.56043 53.8055 4.96642C53.8055 4.41292 53.3352 3.99442 52.699 3.99442C52.0628 3.99442 51.5926 4.43992 51.5926 5.00692C51.5926 5.57392 52.0628 6.01942 52.699 6.01942ZM51.8277 14.4164H53.5565V7.20742H51.8277V14.4164Z" fill="white"/>
<path d="M60.0164 7.12642C58.9376 7.12642 58.0386 7.47743 57.4715 8.13892V7.20742H55.8257V14.4164H57.5545V10.7714C57.5545 9.32693 58.3843 8.59792 59.6153 8.59792C60.7217 8.59792 61.3718 9.21892 61.3718 10.5014V14.4164H63.1006V10.2854C63.1006 8.11192 61.7867 7.12642 60.0164 7.12642Z" fill="white"/>
<path d="M67.5759 14.5109C69.6505 14.5109 70.9229 13.6334 70.9229 12.2834C70.9229 9.46193 66.3588 10.7579 66.3588 9.29993C66.3588 8.82742 66.8567 8.48993 67.9078 8.48993C68.6132 8.48993 69.3185 8.62492 70.0239 9.02992L70.6878 7.74742C70.0239 7.35592 68.9036 7.12642 67.9216 7.12642C65.93 7.12642 64.6714 8.01742 64.6714 9.38092C64.6714 12.2564 69.2356 10.9604 69.2356 12.3374C69.2356 12.8369 68.7792 13.1339 67.6865 13.1339C66.7599 13.1339 65.764 12.8369 65.114 12.4184L64.4501 13.7009C65.114 14.1599 66.3449 14.5109 67.5759 14.5109Z" fill="white"/>
<path d="M82.2625 7.20742L80.2571 12.5534L78.2654 7.20742H76.8132L74.7801 12.5264L72.83 7.20742H71.1979L73.9087 14.4164H75.5684L77.5048 9.44842L79.4134 14.4164H81.0731L83.7978 7.20742H82.2625Z" fill="white"/>
<path d="M87.5783 7.12642C86.3889 7.12642 85.2409 7.42343 84.4526 8.01742L85.1303 9.24592C85.6835 8.80042 86.541 8.53043 87.3709 8.53043C88.6018 8.53043 89.2103 9.11093 89.2103 10.0964V10.2044H87.3017C85.0611 10.2044 84.2313 11.1494 84.2313 12.3509C84.2313 13.6064 85.2962 14.5109 86.9836 14.5109C88.0901 14.5109 88.8922 14.1599 89.3072 13.5389V14.4164H90.9392V10.1909C90.9392 8.11193 89.7083 7.12642 87.5783 7.12642ZM87.3432 13.2824C86.458 13.2824 85.9324 12.8909 85.9324 12.2834C85.9324 11.7569 86.2506 11.3249 87.4262 11.3249H89.2103V12.1619C88.9199 12.9044 88.1869 13.2824 87.3432 13.2824Z" fill="white"/>
<path d="M97.2519 7.12642C96.2422 7.12642 95.3847 7.46392 94.8038 8.15242V7.20742H93.1579V17.0354H94.8868V13.5389C95.4815 14.2004 96.3114 14.5109 97.2519 14.5109C99.4095 14.5109 101 13.0529 101 10.8119C101 8.58443 99.4095 7.12642 97.2519 7.12642ZM97.0582 13.0664C95.8135 13.0664 94.8591 12.1889 94.8591 10.8119C94.8591 9.43493 95.8135 8.55742 97.0582 8.55742C98.303 8.55742 99.2435 9.43493 99.2435 10.8119C99.2435 12.1889 98.303 13.0664 97.0582 13.0664Z" fill="white"/>
</g>
<defs>
<linearGradient id="paint0_linear_348_182" x1="14.2031" y1="2.95312" x2="23.5935" y2="48.1161" gradientUnits="userSpaceOnUse">
<stop stop-color="white"/>
<stop offset="0.28" stop-color="#E7E7E7"/>
<stop offset="0.61" stop-color="#BEBEBE"/>
<stop offset="0.86" stop-color="#ACACAC"/>
<stop offset="1" stop-color="#A3A3A3"/>
</linearGradient>
</defs>
</svg>

<svg xmlns="http://www.w3.org/2000/svg" width="101" height="21" fill="none">
  <g opacity=".5">
    <path fill="url(#a)"
      d="M10.757 21c5.941 0 10.758-4.701 10.758-10.5S16.698 0 10.757 0C4.817 0 0 4.701 0 10.5S4.816 21 10.757 21Z" />
    <path fill="#595959" d="M13.934 15.978V8.891H7.58l6.354 7.087Z" />
    <path fill="#ACACAC" d="M7.58 5.02v7.07h6.354L7.58 5.02Z" />
    <path fill="#fff"
      d="M27.317 14.416h6.86v-1.485h-5.062V4.966h-1.798v9.45ZM42.306 10.852c0-2.254-1.576-3.726-3.734-3.726-2.2 0-3.817 1.54-3.817 3.686s1.604 3.699 4.08 3.699c1.272 0 2.31-.405 2.973-1.175l-.926-1.04c-.526.527-1.176.784-2.006.784-1.286 0-2.185-.675-2.393-1.728h5.796c.013-.162.027-.365.027-.5Zm-3.734-2.376c1.134 0 1.95.716 2.088 1.755h-4.19c.166-1.053.982-1.755 2.102-1.755ZM49.087 7.207l-2.365 5.346-2.296-5.346H42.63l3.167 7.21h1.784l3.167-7.21h-1.66ZM52.699 6.02c.65 0 1.107-.46 1.107-1.054 0-.553-.47-.972-1.107-.972-.636 0-1.106.446-1.106 1.013s.47 1.012 1.106 1.012Zm-.871 8.396h1.728V7.207h-1.728v7.21ZM60.016 7.126c-1.078 0-1.977.351-2.544 1.013v-.932h-1.646v7.21h1.728V10.77c0-1.444.83-2.173 2.061-2.173 1.107 0 1.757.62 1.757 1.903v3.915H63.1v-4.13c0-2.174-1.314-3.16-3.085-3.16ZM67.576 14.51c2.075 0 3.347-.877 3.347-2.227 0-2.821-4.564-1.525-4.564-2.983 0-.473.498-.81 1.549-.81.705 0 1.41.135 2.116.54l.664-1.283c-.664-.391-1.784-.62-2.766-.62-1.992 0-3.25.89-3.25 2.254 0 2.875 4.564 1.58 4.564 2.956 0 .5-.457.797-1.55.797-.926 0-1.922-.297-2.572-.716l-.664 1.283c.664.459 1.895.81 3.126.81ZM82.263 7.207l-2.006 5.346-1.992-5.346h-1.452l-2.033 5.32-1.95-5.32h-1.632l2.71 7.21h1.66l1.937-4.969 1.908 4.968h1.66l2.725-7.209h-1.535ZM87.578 7.126c-1.19 0-2.337.297-3.125.891l.677 1.229c.553-.446 1.411-.716 2.24-.716 1.232 0 1.84.58 1.84 1.566v.108h-1.908c-2.24 0-3.07.945-3.07 2.147 0 1.255 1.064 2.16 2.752 2.16 1.106 0 1.908-.351 2.323-.972v.877h1.632v-4.225c0-2.08-1.23-3.065-3.36-3.065Zm-.235 6.156c-.885 0-1.41-.391-1.41-.999 0-.526.318-.958 1.493-.958h1.784v.837c-.29.742-1.023 1.12-1.867 1.12ZM97.252 7.126c-1.01 0-1.867.338-2.448 1.026v-.945h-1.646v9.828h1.729V13.54c.594.661 1.424.972 2.365.972 2.157 0 3.748-1.458 3.748-3.7 0-2.227-1.59-3.685-3.748-3.685Zm-.194 5.94c-1.245 0-2.199-.877-2.199-2.254s.955-2.255 2.2-2.255c1.244 0 2.184.878 2.184 2.255 0 1.377-.94 2.254-2.185 2.254Z" />
  </g>
  <defs>
    <linearGradient id="a" x1="14.203" x2="23.593" y1="2.953" y2="48.116" gradientUnits="userSpaceOnUse">
      <stop stop-color="#fff" />
      <stop offset=".28" stop-color="#E7E7E7" />
      <stop offset=".61" stop-color="#BEBEBE" />
      <stop offset=".86" stop-color="#ACACAC" />
      <stop offset="1" stop-color="#A3A3A3" />
    </linearGradient>
  </defs>
</svg>
